src/24x24/places/folder-gruvbox-mix-purple-github.svg

<svg xmlns="http://www.w3.org/2000/svg" width="24" height="24" version="1">
 <rect style="opacity:0.2" width="20" height="12" x="2" y="9.5" rx="1" ry="1"/>
 <path style="fill:#924f79" d="M 2,17 C 2,17.554 2.446,18 3,18 H 21 C 21.554,18 22,17.554 22,17 V 6 C 22,5.446 21.554,5 21,5 H 12 C 10.5,5 10,3 8.5,3 H 3 C 2.446,3 2,3.446 2,4"/>
 <rect style="opacity:0.2" width="20" height="12" x="2" y="8.5" rx="1" ry="1"/>
 <rect style="fill:#E6DCBB" width="16" height="8" x="4" y="7" rx="1" ry="1"/>
 <rect style="fill:#d3869b" width="20" height="12" x="2" y="9" rx="1" ry="1"/>
 <path style="opacity:0.1;fill:#E6DCBB" d="M 3,3 C 2.446,3 2,3.446 2,4 V 4.5 C 2,3.946 2.446,3.5 3,3.5 H 8.5 C 10,3.5 10.5,5.5 12,5.5 H 21 C 21.554,5.5 22,5.946 22,6.5 V 6 C 22,5.446 21.554,5 21,5 H 12 C 10.5,5 10,3 8.5,3 Z"/>
 <path style="fill:#423B3A" d="m 12,11.129883 c -2.216,0 -4,1.784 -4,4 0,1.786484 1.159976,3.290064 2.770508,3.80664 V 18.005957 C 9.757983,18.229397 9.544922,17.560644 9.544922,17.560644 9.379327,17.133335 9.140625,17.019629 9.140625,17.019629 c -0.330515,-0.229285 0.02442,-0.225586 0.02442,-0.225586 0.36536,0.02609 0.557617,0.381836 0.557617,0.381836 0.3247,0.56516 0.852195,0.402297 1.05957,0.307617 0.03308,-0.238865 0.127536,-0.30319 0.231446,-0.395605 -0.80825,-0.09335 -1.4731884,-0.801869 -1.508789,-1.528006 -0.02175,-0.443633 0.362266,-0.933869 0.595116,-1.192219 -0.03755,-0.09355 -0.163044,-0.869725 0.03515,-1.378775 0,0 0.0191,-0.006 0.05859,-0.0078 0.11845,-0.0055 0.3849,0.318844 0.90625,0.677794 0.314772,-0.09043 0.648517,-0.132716 0.900001,-0.134766 0.283566,-0.0023 0.569923,0.04644 0.865811,0.134766 0.5215,-0.35895 0.854656,-0.68427 0.972656,-0.678771 h 10e-4 c 0.03945,0.0018 0.05859,0.0078 0.05859,0.0078 0.19866,0.50903 0.07345,1.286202 0.03614,1.379751 0.23326,0.258401 0.570033,0.752351 0.565804,1.19222 -0.0089,0.93044 -0.850433,1.433571 -1.661133,1.525076 0.130503,0.1142 0.163086,0.340642 0.163086,0.685547 0,0.41656 -0.001,0.68732 -0.002,0.859375 V 19 C 14.728287,18.557659 16,16.999841 16,15.129883 c 0,-2.216 -1.784,-4 -4,-4 z"/>
</svg>

<?xml version="1.0" encoding="UTF-8"?>
<svg width="24" height="24" version="1" xmlns="http://www.w3.org/2000/svg">
 <rect x="2" y="9.5" width="20" height="12" rx="1" ry="1" opacity=".2"/>
 <path d="m2 17c0 0.554 0.446 1 1 1h18c0.554 0 1-0.446 1-1v-11c0-0.554-0.446-1-1-1h-9c-1.5 0-2-2-3.5-2h-5.5c-0.554 0-1 0.446-1 1" fill="#924f79"/>
 <rect x="2" y="8.5" width="20" height="12" rx="1" ry="1" opacity=".2"/>
 <rect x="4" y="7" width="16" height="8" rx="1" ry="1" fill="#E6DCBB"/>
 <rect x="2" y="9" width="20" height="12" rx="1" ry="1" fill="#d3869b"/>
 <path d="m3 3c-0.554 0-1 0.446-1 1v0.5c0-0.554 0.446-1 1-1h5.5c1.5 0 2 2 3.5 2h9c0.554 0 1 0.446 1 1v-0.5c0-0.554-0.446-1-1-1h-9c-1.5 0-2-2-3.5-2z" fill="#E6DCBB" opacity=".1"/>
 <path d="m12 11.13c-2.216 0-4 1.784-4 4 0 1.7865 1.16 3.2901 2.7705 3.8066v-0.93057c-1.0125 0.22344-1.2256-0.44531-1.2256-0.44531-0.1656-0.42731-0.4043-0.54102-0.4043-0.54102-0.33052-0.22928 0.02442-0.22559 0.02442-0.22559 0.36536 0.02609 0.55762 0.38184 0.55762 0.38184 0.3247 0.56516 0.8522 0.4023 1.0596 0.30762 0.03308-0.23886 0.12754-0.30319 0.23145-0.3956-0.80825-0.09335-1.4732-0.80187-1.5088-1.528-0.02175-0.44363 0.36227-0.93387 0.59512-1.1922-0.03755-0.09355-0.16304-0.86972 0.03515-1.3788 0 0 0.0191-6e-3 0.05859-0.0078 0.11845-0.0055 0.3849 0.31884 0.90625 0.67779 0.31477-0.09043 0.64852-0.13272 0.9-0.13477 0.28357-0.0023 0.56992 0.04644 0.86581 0.13477 0.5215-0.35895 0.85466-0.68427 0.97266-0.67877h1e-3c0.03945 0.0018 0.05859 0.0078 0.05859 0.0078 0.19866 0.50903 0.07345 1.2862 0.03614 1.3798 0.23326 0.2584 0.57003 0.75235 0.5658 1.1922-0.0089 0.93044-0.85043 1.4336-1.6611 1.5251 0.1305 0.1142 0.16309 0.34064 0.16309 0.68555 0 0.41656-1e-3 0.68732-2e-3 0.85938v0.37012c1.7283-0.44234 3-2.0002 3-3.8701 0-2.216-1.784-4-4-4z" fill="#423B3A"/>
</svg>
